flaticon/interaction/server-9.svg

<svg xmlns="http://www.w3.org/2000/svg" width="32" height="32" viewBox="0 0 24 24">
    <path d="M 23.675781 17.945312 L 23.097656 17.835938 C 22.828125 17.78125 22.613281 17.605469 22.511719 17.347656 C 22.410156 17.089844 22.449219 16.816406 22.609375 16.59375 L 22.972656 16.097656 C 23.089844 15.941406 23.074219 15.71875 22.933594 15.578125 L 22.148438 14.796875 C 22.015625 14.660156 21.800781 14.640625 21.644531 14.75 L 21.15625 15.078125 C 20.929688 15.234375 20.652344 15.257812 20.398438 15.148438 C 20.144531 15.039062 19.976562 14.816406 19.933594 14.542969 L 19.839844 13.9375 C 19.8125 13.742188 19.644531 13.601562 19.445312 13.601562 L 18.339844 13.601562 C 18.144531 13.601562 17.980469 13.738281 17.945312 13.925781 L 17.800781 14.671875 C 17.75 14.9375 17.578125 15.148438 17.328125 15.25 C 17.078125 15.355469 16.808594 15.324219 16.585938 15.175781 L 15.957031 14.75 C 15.796875 14.640625 15.585938 14.660156 15.449219 14.796875 L 14.664062 15.582031 C 14.527344 15.71875 14.507812 15.941406 14.625 16.101562 L 14.988281 16.59375 C 15.152344 16.816406 15.1875 17.089844 15.085938 17.347656 C 14.984375 17.605469 14.773438 17.78125 14.503906 17.835938 L 13.925781 17.945312 C 13.738281 17.980469 13.601562 18.144531 13.601562 18.339844 L 13.601562 19.445312 C 13.601562 19.644531 13.742188 19.8125 13.9375 19.839844 L 14.546875 19.933594 C 14.820312 19.976562 15.039062 20.144531 15.148438 20.398438 C 15.257812 20.652344 15.234375 20.929688 15.078125 21.15625 L 14.75 21.644531 C 14.640625 21.800781 14.660156 22.015625 14.796875 22.152344 L 15.582031 22.933594 C 15.71875 23.074219 15.941406 23.089844 16.101562 22.972656 L 16.59375 22.613281 C 16.816406 22.449219 17.09375 22.414062 17.347656 22.511719 C 17.605469 22.613281 17.78125 22.828125 17.835938 23.097656 L 17.945312 23.675781 C 17.980469 23.863281 18.144531 24 18.339844 24 L 19.445312 24 C 19.644531 24 19.8125 23.855469 19.839844 23.660156 L 19.90625 23.234375 C 19.949219 22.960938 20.128906 22.730469 20.382812 22.625 C 20.640625 22.519531 20.929688 22.554688 21.152344 22.71875 L 21.5 22.972656 C 21.660156 23.089844 21.878906 23.074219 22.019531 22.933594 L 22.804688 22.152344 C 22.9375 22.015625 22.960938 21.800781 22.851562 21.644531 L 22.523438 21.15625 C 22.367188 20.929688 22.339844 20.652344 22.453125 20.398438 C 22.5625 20.144531 22.78125 19.976562 23.054688 19.933594 L 23.660156 19.839844 C 23.855469 19.8125 24 19.644531 24 19.445312 L 24 18.339844 C 24 18.144531 23.863281 17.980469 23.675781 17.945312 Z M 23.199219 19.101562 L 22.933594 19.144531 C 22.390625 19.226562 21.9375 19.578125 21.71875 20.078125 C 21.5 20.582031 21.550781 21.152344 21.859375 21.605469 L 22.003906 21.820312 L 21.695312 22.125 L 21.625 22.074219 C 21.175781 21.742188 20.597656 21.671875 20.078125 21.886719 C 19.5625 22.101562 19.203125 22.558594 19.117188 23.113281 L 19.101562 23.199219 L 18.667969 23.199219 L 18.621094 22.945312 C 18.515625 22.410156 18.152344 21.96875 17.640625 21.769531 C 17.128906 21.566406 16.5625 21.640625 16.121094 21.964844 L 15.902344 22.125 L 15.597656 21.816406 L 15.742188 21.605469 C 16.046875 21.152344 16.101562 20.582031 15.882812 20.078125 C 15.664062 19.578125 15.207031 19.226562 14.667969 19.144531 L 14.398438 19.101562 L 14.398438 18.667969 L 14.652344 18.621094 C 15.191406 18.515625 15.632812 18.152344 15.832031 17.640625 C 16.03125 17.128906 15.957031 16.5625 15.632812 16.121094 L 15.476562 15.902344 L 15.78125 15.597656 L 16.136719 15.835938 C 16.582031 16.136719 17.140625 16.195312 17.636719 15.988281 C 18.132812 15.785156 18.488281 15.347656 18.589844 14.820312 L 18.667969 14.398438 L 19.101562 14.398438 L 19.144531 14.667969 C 19.226562 15.207031 19.578125 15.664062 20.078125 15.882812 C 20.582031 16.101562 21.152344 16.046875 21.605469 15.742188 L 21.820312 15.597656 L 22.125 15.902344 L 21.964844 16.121094 C 21.640625 16.5625 21.570312 17.128906 21.769531 17.640625 C 21.96875 18.152344 22.410156 18.515625 22.945312 18.621094 L 23.199219 18.667969 Z M 23.199219 19.101562"/>
    <path d="M18.800781 16.800781C17.695312 16.800781 16.800781 17.695312 16.800781 18.800781 16.800781 19.902344 17.695312 20.800781 18.800781 20.800781 19.902344 20.800781 20.800781 19.902344 20.800781 18.800781 20.800781 17.695312 19.902344 16.800781 18.800781 16.800781zM18.800781 20C18.136719 20 17.601562 19.460938 17.601562 18.800781 17.601562 18.136719 18.136719 17.601562 18.800781 17.601562 19.460938 17.601562 20 18.136719 20 18.800781 20 19.460938 19.460938 20 18.800781 20zM4.199219 2.398438C3.207031 2.398438 2.398438 3.207031 2.398438 4.199219 2.398438 5.191406 3.207031 6 4.199219 6 5.191406 6 6 5.191406 6 4.199219 6 3.207031 5.191406 2.398438 4.199219 2.398438zM4.199219 5.199219C3.648438 5.199219 3.199219 4.75 3.199219 4.199219 3.199219 3.648438 3.648438 3.199219 4.199219 3.199219 4.75 3.199219 5.199219 3.648438 5.199219 4.199219 5.199219 4.75 4.75 5.199219 4.199219 5.199219zM20.398438 3.601562C20.398438 3.820312 20.222656 4 20 4 19.777344 4 19.601562 3.820312 19.601562 3.601562 19.601562 3.378906 19.777344 3.199219 20 3.199219 20.222656 3.199219 20.398438 3.378906 20.398438 3.601562zM18.800781 3.601562C18.800781 3.820312 18.621094 4 18.398438 4 18.179688 4 18 3.820312 18 3.601562 18 3.378906 18.179688 3.199219 18.398438 3.199219 18.621094 3.199219 18.800781 3.378906 18.800781 3.601562zM21.199219 4.800781C21.199219 5.019531 21.019531 5.199219 20.800781 5.199219 20.578125 5.199219 20.398438 5.019531 20.398438 4.800781 20.398438 4.578125 20.578125 4.398438 20.800781 4.398438 21.019531 4.398438 21.199219 4.578125 21.199219 4.800781zM19.601562 4.800781C19.601562 5.019531 19.421875 5.199219 19.199219 5.199219 18.980469 5.199219 18.800781 5.019531 18.800781 4.800781 18.800781 4.578125 18.980469 4.398438 19.199219 4.398438 19.421875 4.398438 19.601562 4.578125 19.601562 4.800781zM17.199219 3.601562C17.199219 3.820312 17.019531 4 16.800781 4 16.578125 4 16.398438 3.820312 16.398438 3.601562 16.398438 3.378906 16.578125 3.199219 16.800781 3.199219 17.019531 3.199219 17.199219 3.378906 17.199219 3.601562zM18 4.800781C18 5.019531 17.820312 5.199219 17.601562 5.199219 17.378906 5.199219 17.199219 5.019531 17.199219 4.800781 17.199219 4.578125 17.378906 4.398438 17.601562 4.398438 17.820312 4.398438 18 4.578125 18 4.800781zM15.601562 3.601562C15.601562 3.820312 15.421875 4 15.199219 4 14.980469 4 14.800781 3.820312 14.800781 3.601562 14.800781 3.378906 14.980469 3.199219 15.199219 3.199219 15.421875 3.199219 15.601562 3.378906 15.601562 3.601562zM16.398438 4.800781C16.398438 5.019531 16.222656 5.199219 16 5.199219 15.777344 5.199219 15.601562 5.019531 15.601562 4.800781 15.601562 4.578125 15.777344 4.398438 16 4.398438 16.222656 4.398438 16.398438 4.578125 16.398438 4.800781zM14 3.601562C14 3.820312 13.820312 4 13.601562 4 13.378906 4 13.199219 3.820312 13.199219 3.601562 13.199219 3.378906 13.378906 3.199219 13.601562 3.199219 13.820312 3.199219 14 3.378906 14 3.601562zM14.800781 4.800781C14.800781 5.019531 14.621094 5.199219 14.398438 5.199219 14.179688 5.199219 14 5.019531 14 4.800781 14 4.578125 14.179688 4.398438 14.398438 4.398438 14.621094 4.398438 14.800781 4.578125 14.800781 4.800781zM14.800781 4.800781"/>
    <path d="M 24 6.558594 L 24 1.84375 C 24 0.828125 23.171875 0 22.15625 0 L 1.84375 0 C 0.828125 0 0 0.828125 0 1.84375 L 0 6.554688 C 0 7.144531 0.28125 7.660156 0.710938 8 C 0.28125 8.339844 0 8.855469 0 9.441406 L 0 14.15625 C 0 14.742188 0.28125 15.261719 0.710938 15.601562 C 0.28125 15.9375 0 16.457031 0 17.042969 L 0 21.757812 C 0 22.773438 0.828125 23.601562 1.84375 23.601562 L 13.199219 23.601562 L 13.199219 22.800781 L 1.84375 22.800781 C 1.269531 22.800781 0.800781 22.332031 0.800781 21.757812 L 0.800781 17.042969 C 0.800781 16.46875 1.269531 16 1.84375 16 L 11.199219 16 L 11.199219 15.199219 L 1.84375 15.199219 C 1.269531 15.199219 0.800781 14.730469 0.800781 14.15625 L 0.800781 9.441406 C 0.800781 8.867188 1.269531 8.398438 1.84375 8.398438 L 22.15625 8.398438 C 22.730469 8.398438 23.199219 8.867188 23.199219 9.441406 L 23.199219 14 L 24 14 L 24 9.441406 C 24 8.855469 23.71875 8.335938 23.289062 8 C 23.71875 7.660156 24 7.144531 24 6.558594 Z M 1.84375 7.601562 C 1.269531 7.601562 0.800781 7.132812 0.800781 6.558594 L 0.800781 1.84375 C 0.800781 1.269531 1.269531 0.800781 1.84375 0.800781 L 22.15625 0.800781 C 22.730469 0.800781 23.199219 1.269531 23.199219 1.84375 L 23.199219 6.554688 C 23.199219 7.132812 22.730469 7.601562 22.15625 7.601562 Z M 1.84375 7.601562"/>
    <path d="M2.398438 11.800781C2.398438 12.792969 3.207031 13.601562 4.199219 13.601562 5.191406 13.601562 6 12.792969 6 11.800781 6 10.808594 5.191406 10 4.199219 10 3.207031 10 2.398438 10.808594 2.398438 11.800781zM5.199219 11.800781C5.199219 12.351562 4.75 12.800781 4.199219 12.800781 3.648438 12.800781 3.199219 12.351562 3.199219 11.800781 3.199219 11.25 3.648438 10.800781 4.199219 10.800781 4.75 10.800781 5.199219 11.25 5.199219 11.800781zM20.398438 11.199219C20.398438 11.421875 20.222656 11.601562 20 11.601562 19.777344 11.601562 19.601562 11.421875 19.601562 11.199219 19.601562 10.980469 19.777344 10.800781 20 10.800781 20.222656 10.800781 20.398438 10.980469 20.398438 11.199219zM18.800781 11.199219C18.800781 11.421875 18.621094 11.601562 18.398438 11.601562 18.179688 11.601562 18 11.421875 18 11.199219 18 10.980469 18.179688 10.800781 18.398438 10.800781 18.621094 10.800781 18.800781 10.980469 18.800781 11.199219zM21.199219 12.398438C21.199219 12.621094 21.019531 12.800781 20.800781 12.800781 20.578125 12.800781 20.398438 12.621094 20.398438 12.398438 20.398438 12.179688 20.578125 12 20.800781 12 21.019531 12 21.199219 12.179688 21.199219 12.398438zM19.601562 12.398438C19.601562 12.621094 19.421875 12.800781 19.199219 12.800781 18.980469 12.800781 18.800781 12.621094 18.800781 12.398438 18.800781 12.179688 18.980469 12 19.199219 12 19.421875 12 19.601562 12.179688 19.601562 12.398438zM17.199219 11.199219C17.199219 11.421875 17.019531 11.601562 16.800781 11.601562 16.578125 11.601562 16.398438 11.421875 16.398438 11.199219 16.398438 10.980469 16.578125 10.800781 16.800781 10.800781 17.019531 10.800781 17.199219 10.980469 17.199219 11.199219zM18 12.398438C18 12.621094 17.820312 12.800781 17.601562 12.800781 17.378906 12.800781 17.199219 12.621094 17.199219 12.398438 17.199219 12.179688 17.378906 12 17.601562 12 17.820312 12 18 12.179688 18 12.398438zM15.601562 11.199219C15.601562 11.421875 15.421875 11.601562 15.199219 11.601562 14.980469 11.601562 14.800781 11.421875 14.800781 11.199219 14.800781 10.980469 14.980469 10.800781 15.199219 10.800781 15.421875 10.800781 15.601562 10.980469 15.601562 11.199219zM16.398438 12.398438C16.398438 12.621094 16.222656 12.800781 16 12.800781 15.777344 12.800781 15.601562 12.621094 15.601562 12.398438 15.601562 12.179688 15.777344 12 16 12 16.222656 12 16.398438 12.179688 16.398438 12.398438zM14 11.199219C14 11.421875 13.820312 11.601562 13.601562 11.601562 13.378906 11.601562 13.199219 11.421875 13.199219 11.199219 13.199219 10.980469 13.378906 10.800781 13.601562 10.800781 13.820312 10.800781 14 10.980469 14 11.199219zM14.800781 12.398438C14.800781 12.621094 14.621094 12.800781 14.398438 12.800781 14.179688 12.800781 14 12.621094 14 12.398438 14 12.179688 14.179688 12 14.398438 12 14.621094 12 14.800781 12.179688 14.800781 12.398438zM2.398438 19.398438C2.398438 20.390625 3.207031 21.199219 4.199219 21.199219 5.191406 21.199219 6 20.390625 6 19.398438 6 18.40625 5.191406 17.601562 4.199219 17.601562 3.207031 17.601562 2.398438 18.40625 2.398438 19.398438zM5.199219 19.398438C5.199219 19.953125 4.75 20.398438 4.199219 20.398438 3.648438 20.398438 3.199219 19.953125 3.199219 19.398438 3.199219 18.847656 3.648438 18.398438 4.199219 18.398438 4.75 18.398438 5.199219 18.847656 5.199219 19.398438zM5.199219 19.398438"/>
</svg>

<svg xmlns="http://www.w3.org/2000/svg" width="32" height="32" viewBox="0 0 24 24">
    <path d="M23.676 17.945l-.578-.11a.785.785 0 0 1-.586-.487.779.779 0 0 1 .097-.754l.364-.496a.399.399 0 0 0-.04-.52l-.785-.781a.392.392 0 0 0-.503-.047l-.489.328a.773.773 0 0 1-.758.07.777.777 0 0 1-.464-.605l-.094-.605a.393.393 0 0 0-.395-.336H18.34a.399.399 0 0 0-.395.324l-.144.746a.769.769 0 0 1-.473.578.774.774 0 0 1-.742-.074l-.629-.426a.397.397 0 0 0-.508.047l-.785.785a.403.403 0 0 0-.039.52l.363.492a.77.77 0 0 1 .098.754.78.78 0 0 1-.582.488l-.578.11a.399.399 0 0 0-.324.394v1.105c0 .2.14.367.335.395l.61.094c.273.043.492.21.601.464a.773.773 0 0 1-.07.758l-.328.489a.397.397 0 0 0 .047.507l.785.782c.137.14.36.156.52.039l.492-.36a.785.785 0 0 1 1.242.484l.11.579c.034.187.199.324.394.324h1.105c.2 0 .367-.145.395-.34l.066-.426a.788.788 0 0 1 1.246-.516l.348.255c.16.117.379.101.52-.04l.785-.78a.402.402 0 0 0 .047-.508l-.329-.489a.763.763 0 0 1-.07-.758.771.771 0 0 1 .602-.464l.605-.094a.396.396 0 0 0 .34-.395V18.34a.399.399 0 0 0-.324-.395zm-.477 1.157l-.265.043a1.578 1.578 0 0 0-1.215.933 1.58 1.58 0 0 0 .14 1.527l.145.215-.309.305-.07-.05a1.571 1.571 0 0 0-1.547-.188 1.58 1.58 0 0 0-.96 1.226l-.016.086h-.434l-.047-.254a1.58 1.58 0 0 0-.98-1.175 1.57 1.57 0 0 0-1.52.195l-.219.16-.304-.309.144-.21a1.59 1.59 0 0 0-1.074-2.461l-.27-.043v-.434l.254-.047a1.58 1.58 0 0 0 1.18-.98c.2-.512.125-1.078-.2-1.52l-.155-.219.304-.304.356.238c.445.3 1.004.36 1.5.152a1.58 1.58 0 0 0 .953-1.168l.078-.422h.434l.043.27a1.59 1.59 0 0 0 2.46 1.074l.215-.144.305.304-.16.22a1.58 1.58 0 0 0-.195 1.519c.199.511.64.875 1.175.98l.254.047zm0 0"/>
    <path d="M18.8 16.8a1.999 1.999 0 1 0-.002 3.998 1.999 1.999 0 0 0 .003-3.997zm0 3.2a1.2 1.2 0 1 1 .001-2.399 1.2 1.2 0 0 1 0 2.399zm0 0M4.2 2.398c-.993 0-1.802.809-1.802 1.801C2.398 5.191 3.207 6 4.2 6 5.191 6 6 5.191 6 4.2c0-.993-.809-1.802-1.8-1.802zm0 2.801c-.552 0-1-.449-1-1 0-.55.448-1 1-1 .55 0 1 .45 1 1 0 .551-.45 1-1 1zm0 0M20.398 3.602a.398.398 0 1 1-.796 0 .398.398 0 1 1 .796 0zm0 0M18.8 3.602A.401.401 0 1 1 18 3.597a.401.401 0 0 1 .802.005zm0 0M21.2 4.8a.4.4 0 1 1-.801-.003.4.4 0 0 1 .8.004zm0 0M19.602 4.8a.401.401 0 1 1-.802-.004.401.401 0 0 1 .802.005zm0 0M17.2 3.602a.4.4 0 1 1-.801-.004.4.4 0 0 1 .8.004zm0 0M18 4.8a.4.4 0 1 1-.8-.003.4.4 0 0 1 .8.004zm0 0M15.602 3.602a.401.401 0 1 1-.802-.005.401.401 0 0 1 .802.005zm0 0M16.398 4.8a.398.398 0 1 1-.796 0 .398.398 0 1 1 .796 0zm0 0M14 3.602a.4.4 0 1 1-.8-.004.4.4 0 0 1 .8.004zm0 0M14.8 4.8A.401.401 0 1 1 14 4.797a.401.401 0 0 1 .802.005zm0 0"/>
    <path d="M24 6.559V1.844A1.847 1.847 0 0 0 22.156 0H1.844A1.847 1.847 0 0 0 0 1.844v4.71C0 7.145.281 7.66.71 8 .282 8.34 0 8.855 0 9.441v4.715c0 .586.281 1.106.71 1.446-.429.335-.71.855-.71 1.441v4.715c0 1.015.828 1.844 1.844 1.844h11.355V22.8H1.844A1.045 1.045 0 0 1 .8 21.758v-4.715C.8 16.469 1.27 16 1.844 16h9.355v-.8H1.844A1.045 1.045 0 0 1 .8 14.155V9.441c0-.574.469-1.043 1.043-1.043h20.312c.574 0 1.043.47 1.043 1.043V14H24V9.441c0-.586-.281-1.105-.71-1.441.429-.34.71-.855.71-1.441zM1.844 7.602A1.045 1.045 0 0 1 .8 6.559V1.844C.8 1.27 1.27.8 1.844.8h20.312c.574 0 1.043.469 1.043 1.043v4.71c0 .579-.469 1.048-1.043 1.048zm0 0"/>
    <path d="M2.398 11.8c0 .993.809 1.802 1.801 1.802.992 0 1.801-.809 1.801-1.801C6 10.809 5.191 10 4.2 10c-.993 0-1.802.809-1.802 1.8zm2.801 0c0 .552-.449 1-1 1-.55 0-1-.448-1-1 0-.55.45-1 1-1 .551 0 1 .45 1 1zm0 0M20.398 11.2a.398.398 0 1 1-.796 0 .398.398 0 1 1 .796 0zm0 0M18.8 11.2a.401.401 0 1 1 0 0zm0 0M21.2 12.398a.401.401 0 1 1-.803.003.401.401 0 0 1 .802-.003zm0 0M19.602 12.398a.401.401 0 1 1 0 0zm0 0M17.2 11.2a.401.401 0 1 1-.803.002.401.401 0 0 1 .802-.003zm0 0M18 12.398a.401.401 0 1 1-.802.003.401.401 0 0 1 .802-.003zm0 0M15.602 11.2a.401.401 0 1 1 0 0zm0 0M16.398 12.398a.398.398 0 1 1-.796 0 .398.398 0 1 1 .796 0zm0 0M14 11.2a.401.401 0 1 1-.802.002.401.401 0 0 1 .802-.003zm0 0M14.8 12.398a.401.401 0 1 1 0 0zm0 0M2.398 19.398c0 .993.809 1.801 1.801 1.801.992 0 1.801-.808 1.801-1.8a1.8 1.8 0 0 0-3.602 0zm2.801 0A1 1 0 1 1 3.2 19.4a1 1 0 0 1 2-.002zm0 0"/>
</svg>
